!!!OTL-incipit: MEI SCHATZ ISCHT E REITER
!!!ARE: Europa, Mitteleuropa, Deutschland; Tirol
!!!SCT: Z0267
!!!YEM: Copyright 1995, estate of Helmut Schaffrath.
**kern	**text
*ICvox	*
*M3/8	*
*k[b-]	*
*F:	*
!LO:TX:a:t=Aus Tyrol. Baiern.	!
{8cc	Mei
=1	=1
8a	Schatʒ
8cc	iſcht
8cc	e
=2	=2
8a	Reiter,
8cc	.
8cc	e
=3	=3
8a	Reiter
8cc	.
8cc	mueß
=4	=4
4cc}	ſeyn,
{8cc	der
=5	=5
8b-	Gaul
8dd	g'hört
8dd	em
=6	=6
8.ff	Kö-
16ee	-nig,
8dd	der
=7	=7
8dd	Rei-
8cc	-ter
8cc	g'hört
=8	=8
4cc}	mein.
{16ccL	La
16ddJ	.
=9	=9
8cc	la
8b-	la
8b-	la
=10	=10
16b-qqL	.
16ccqqJ	.
8.dd	la
16cc	la
8b-	la
=11	=11
8b-/	la
8a	la
8a	la
=12	=12
4a}	la
{8cc	la
=13	=13
8cc	la
4ee	la
=14	=14
8cc	la
4ff	la
=15	=15
16ffqq	.
8ee	la
8dd	la
8ee	la
=16	=16
4ff}	la.
==	==
!!!AGN: lyrisches Lied, Romanze
!!!ONB: ESAC (Essen Associative Code) Database: ZUCCAL
!!!AMT: simple triple
!!!AIN: vox
!!!EED: Helmut Schaffrath
!!!EEV: 1.0
!!!GTL: IV. Lyrische Lieder.
!!!URL-scan: https://www.digitale-sammlungen.de/de/view/bsb11160571?page=486
!!!ENC: Anna Maria Matuszewska
!!!EEV: 2025/01/30
*-	*-
